images/icons/wc.svg

<!-- Generated by IcoMoon.io -->
<svg version="1.1" xmlns="http://www.w3.org/2000/svg" width="16" height="16" viewBox="0 0 16 16">
<title>wc</title>
<path d="M4.067 4.067c0.667 0 1.2-0.533 1.2-1.2s-0.533-1.133-1.2-1.133c-0.667 0-1.2 0.533-1.2 1.2s0.6 1.133 1.2 1.133zM4.067 4.867c-1.067 0-2-0.867-2-2 0-1.067 0.867-2 2-2 1.067 0 2 0.867 2 2s-0.933 2-2 2zM11.133 4.067c0.667 0 1.2-0.533 1.2-1.2s-0.533-1.2-1.2-1.2-1.133 0.6-1.133 1.267c0 0.6 0.467 1.133 1.133 1.133zM11.133 4.867c-1.067 0-2-0.867-2-2s0.867-2 2-2c1.067 0 2 0.867 2 2s-0.933 2-2 2zM6.4 5.867c0-0.533-0.533-0.933-1.2-0.933h-2.267c-0.667 0-1.2 0.467-1.2 0.933v3.267h1.2v5.067h2.333v-5.067h1.2l-0.067-3.267zM2.133 10h-1.2v-4.133c0-1 0.867-1.733 2-1.733h2.333c1.067 0 2 0.8 2 1.733v4.133h-1.2v5.067h-3.933v-5.067zM12.267 5.6c-0.133-0.4-0.6-0.667-1.133-0.667h-0.067c-0.533 0-0.933 0.267-1.133 0.667l-1.8 4.6h2.133v4h1.533v-4h2.2l-1.733-4.6zM15.267 11h-2.533v4h-3.133v-4h-2.533l0.2-0.533 2-5.133c0.267-0.733 1-1.2 1.867-1.2h0.067c0.867 0 1.6 0.467 1.867 1.2l2.2 5.667z"></path>
</svg>

<svg xmlns="http://www.w3.org/2000/svg" width="16" height="16" viewBox="0 0 16 16"><title>wc</title><path d="M4.067 4.067c.667 0 1.2-.533 1.2-1.2s-.533-1.133-1.2-1.133c-.667 0-1.2.533-1.2 1.2s.6 1.133 1.2 1.133zm0 .8c-1.067 0-2-.867-2-2 0-1.067.867-2 2-2 1.067 0 2 .867 2 2s-.933 2-2 2zm7.066-.8c.667 0 1.2-.533 1.2-1.2s-.533-1.2-1.2-1.2S10 2.267 10 2.934c0 .6.467 1.133 1.133 1.133zm0 .8c-1.067 0-2-.867-2-2s.867-2 2-2c1.067 0 2 .867 2 2s-.933 2-2 2zm-4.733 1c0-.533-.533-.933-1.2-.933H2.933c-.667 0-1.2.467-1.2.933v3.267h1.2v5.067h2.333V9.134h1.2l-.067-3.267zM2.133 10h-1.2V5.867c0-1 .867-1.733 2-1.733h2.333c1.067 0 2 .8 2 1.733V10h-1.2v5.067H2.133V10zm10.134-4.4c-.133-.4-.6-.667-1.133-.667h-.067c-.533 0-.933.267-1.133.667l-1.8 4.6h2.133v4H11.8v-4H14l-1.733-4.6zm3 5.4h-2.533v4H9.601v-4H7.068l.2-.533 2-5.133c.267-.733 1-1.2 1.867-1.2h.067c.867 0 1.6.467 1.867 1.2l2.2 5.667z"/></svg>
